X:9
T:Highstrung Hoedwn
C:Corwin Zekley 
L:1/8
M:4/4
K:Amin
"Am" a3 e gage |"D" ^fedf"Am" e2 A2- | A a2 e gage |"D" ^fedf"Am" e2 AB |$ cde^f g2 fe | %5
"G" dedB G2 AB |1"C" cdeg"G" dBGA- |"F" AcBG"Am" A4 :|2"C" cdeg"G" dBGA- || %9
"F" AcBG A2"Am" A/B/c/d/ |$"Am" e A2 d2 A cA- | A B2 G ABcd | eg^fd egfd | e2 a2 a2 A/B/c/d/ |$ %14
 e A2 d2 A cA- | A B2 G ABcd | eg^fd cedB | AcBG"D" ^F3 G |$"D" AD B c2 B Ac- | cB A c2 B AB | %20
"Am" cAdc ed^fe |"E" ^g6 A/B/c/d/ |$"Am" e A2 d2 A cA- | A B2 G EGAB |"C" cdeg"G" dBGA- | %25
"Em" AcBG A4 |] %26

